img/schema-first.svg

<svg width="70" height="72" viewBox="0 0 70 72" fill="none" xmlns="http://www.w3.org/2000/svg">
<path fill-rule="evenodd" clip-rule="evenodd" d="M50.7674 10.003L34.1105 0L18.2422 9.20292V28.8444L35.1063 38.5704L50.7674 29.5045V10.003ZM19.6563 28.0358V10.8314L34.3986 19.409V36.5381L19.6563 28.0358ZM35.8127 36.5358V19.4112L49.3533 11.6178V28.6974L35.8127 36.5358ZM35.1076 18.1937L48.6724 10.3863L34.0979 1.63381L20.3498 9.60709L35.1076 18.1937ZM15.8684 32.8677L32.5253 42.8708V62.3722L16.8641 71.4382L0 61.7121V42.0706L15.8684 32.8677ZM1.41414 43.6991V60.9035L16.1564 69.4058V52.2767L1.41414 43.6991ZM17.5706 52.2789V69.4035L31.1111 61.5651V44.4855L17.5706 52.2789ZM30.4302 43.254L16.8654 51.0614L2.10765 42.4748L15.8558 34.5015L30.4302 43.254ZM53.3433 33.4296L70.0002 43.4326V62.9341L54.3391 72L37.4749 62.274V42.6325L53.3433 33.4296ZM38.8891 44.261V61.4653L53.6314 69.9676V52.8386L38.8891 44.261ZM55.0455 52.8408V69.9653L68.5861 62.1269V45.0473L55.0455 52.8408ZM67.9052 43.8158L54.3404 51.6233L39.5826 43.0367L53.3307 35.0634L67.9052 43.8158Z" fill="#3C3E4C"/>
<path fill-rule="evenodd" clip-rule="evenodd" d="M26.4832 23.9862C26.831 23.8099 26.9691 23.3869 26.7915 23.0414C26.614 22.6959 26.1882 22.5588 25.8403 22.7351L15.2021 28.1276V42.7442C15.2021 43.132 15.5187 43.4465 15.9092 43.4465C16.2997 43.4465 16.6163 43.132 16.6163 42.7442V28.9877L26.4832 23.9862ZM43.0926 24.6183C42.7448 24.442 42.6067 24.019 42.7842 23.6735C42.9617 23.328 43.3876 23.1909 43.7354 23.3672L54.3736 28.7597V43.3763C54.3736 43.7641 54.057 44.0786 53.6665 44.0786C53.276 44.0786 52.9594 43.7641 52.9594 43.3763V29.6198L43.0926 24.6183Z" fill="#DD3333"/>
</svg>

<svg width="70" height="72" viewBox="0 0 70 72" fill="none" xmlns="http://www.w3.org/2000/svg"><path fill-rule="evenodd" clip-rule="evenodd" d="M50.767 10.003L34.11 0 18.242 9.203v19.641l16.864 9.726 15.661-9.066V10.003zm-31.11 18.033V10.83l14.742 8.578v17.13l-14.743-8.503zm16.156 8.5V19.41l13.54-7.793v17.08l-13.54 7.838zm-.705-18.342l13.564-7.808-14.574-8.752L20.35 9.607l14.758 8.587zm-19.24 14.674L32.525 42.87v19.501l-15.66 9.066L0 61.712V42.071l15.868-9.203zM1.414 43.699v17.205l14.742 8.502v-17.13L1.414 43.7zm16.157 8.58v17.124l13.54-7.838v-17.08l-13.54 7.794zm12.86-9.025l-13.566 7.807-14.757-8.586L15.856 34.5l14.574 8.753zm22.912-9.824L70 43.433v19.501L54.34 72l-16.865-9.726V42.632l15.868-9.202zM38.89 44.26v17.204l14.742 8.503v-17.13L38.89 44.262zm16.156 8.58v17.124l13.541-7.838v-17.08l-13.54 7.794zm12.86-9.025L54.34 51.623l-14.757-8.586 13.748-7.974 14.574 8.753z" fill="#3C3E4C"/><path fill-rule="evenodd" clip-rule="evenodd" d="M26.483 23.986a.7.7 0 00.308-.945.71.71 0 00-.95-.306l-10.639 5.393v14.616c0 .388.317.703.707.703.39 0 .707-.315.707-.703V28.988l9.867-5.002zm16.61.632a.7.7 0 01-.309-.944.71.71 0 01.951-.307l10.639 5.393v14.616a.705.705 0 01-.708.703.705.705 0 01-.707-.703V29.62l-9.866-5.002z" fill="#D33"/></svg>
